!!!OTL: 862. Eheloser Stand.
!!!ODT: 1880
!!!ARE: Europa, Mitteleuropa, Deutschland, Hessen, Unter - Taunus; Limburg
!!!SCT: E0862
!!!TXL: @@DE
!!!YEM: Copyright 1995, estate of Helmut Schaffrath.
**kern	**text
*ICvox	*
*M2/4	*
*k[b-]	*
*F:	*
=1	=1
!LO:TX:a:t=Mäßig.	!
!LO:TX:a:t=Untertaunus und Kreis Limburg. 1880.	!
{4f	Recht
4g	ver-
=2	=2
8a	-gnü-
8cc	-get
8cc	kann
16b-L	man
16aJ	.
=3	=3
4a	le-
4g}	-ben,
=4	=4
{4f	wenn
4g	man
=5	=5
8a	le-
8cc	-bet
8cc	oh-
16b-L	-ne
16aJ	.
=6	=6
(4a	Weib.
4g)}	.
=7;	=7;
{8.f	Dann
16a	hat
8cc	man
8ff	nur
=8	=8
8.dd	al-
16cc	-le
16ddL	Mor-
16ccJ	.
16b-L	-gen
16aJ}	.
=9	=9
{8.g	ſtets
16a	al-
8b-	-lein
8dd	für
=10	=10
8.cc	ſich
16b-	ʒu
16ccL	ſor-
16b-J	.
16aL	-gen,
16gJ}	.
=11	=11
{4f	wie
4g	man
=12	=12
8a	pfle-
8cc	-get
8cc	ſei-
16b-L	-nen
16aJ	.
=13	=13
(4a	Leib.
4g)}	.
==;	==;
!!!AGN: Hochzeits -, Ehestands - Lied
!!!ONB: ESAC (Essen Associative Code) Database: ERK2
!!!AMT: simple duple
!!!AIN: vox
!!!EED: Helmut Schaffrath
!!!EEV: 1.0
!!!GTL: Hochzeits- und Ehrstandslieder, nebst Nonnenklagen
!!!URL-scan: https://rosdok.uni-rostock.de/mcrviewer/recordIdentifier/rosdok_ppn745177662/iview2/phys_0660.iview2?x=193.8995864193107&y=1325.2406919836067&scale=0.7029437510502773&rotation=0&layout=singlePageLayout
!!!ENC: Anna Maria Matuszewska
!!!EEV: 2024/12/18
*-	*-
